X:1
T:Title
%%score 1 { ( 2 4 ) | ( 3 5 ) }
L:1/8
Q:1/4=100
M:4/4
K:C
V:1 treble nm="Church Organ"
V:2 treble nm="Grand Piano"
V:4 treble 
V:3 bass 
V:5 bass 
V:1
 c2 cc c2 c2 | c6 G2 | AB c2 d2 A2 | B8 | c2 cc c2 c2 | c6 G2 | AB c2 c2 B2 |[M:8/4] c8 z8 | %8
w: Maltbie~Babcock * * * *||||||||
[M:4/4] c8 | c8 |] %10
w: ||
V:2
 [Ec]2 [CA]2 [B,G]2 [A,F]2 | [G,E]6 G2 | AB [Gc]2 [Gd]2 [^FA]2 | [GB]8 | %4
 [Gc]2 [CEc]2 [CEB]2 [A,CA]2 | [CG]6 G2 | AB [Gc]2 [Fc]2 B-[F,DB] |[M:8/4] [Cc]8 z8 | %8
[M:4/4] c4- [Fc]4 | [Ec]8 |] %10
V:3
 [C,G,]4 [F,,C,]4 | [C,,C,]6 [E,C]2 | [F,CF]2 [E,C]2 [D,A,]2 [D,D]2 | [G,D]8 | %4
 [E,C]2 [A,,A,]2 [G,,G,]2 [F,,F,]2 | [E,,E,]6 [E,C]2 | [F,CF]2 [E,C]2 [D,A,]2 .[G,,G,]2 | %7
[M:8/4] [C,E,]8 z8 |[M:4/4] z4 A,4 | [C,G,]8 |] %10
V:4
 x8 | x8 | x8 | x8 | x8 | x8 | z4 z2 .E2 |[M:8/4] x16 |[M:4/4] [CA]4 z4 | x8 |] %10
V:5
 x8 | x8 | x8 | x8 | x8 | x8 | x8 |[M:8/4] x16 |[M:4/4] F,8 | x8 |] %10

